img/route.svg

<svg height="80" viewBox="0 0 80 80" width="80" xmlns="http://www.w3.org/2000/svg" xmlns:xlink="http://www.w3.org/1999/xlink"><clipPath id="a"><path clip-rule="evenodd" d="m2002.8915 865.68457h265.7545v234.48943h-265.7545z" transform="matrix(.50620565 0 0 .50919155 -1006.1382 -425.49927)"/></clipPath><path clip-path="url(#a)" d="m69.900002 127.6c.300003 1.1-.300004 2.2-1.400002 2.50001-1.599998.39999-3.199997.89999-4.900002 1.3 0 0 0 0-.099998 0l-.900002.2c-.2 0-.299999.1-.5.1-.900001 0-1.7-.6-1.900001-1.5-.299999-1.1.400001-2.2 1.400001-2.4l1-.2h.099999c1.599998-.4 3.199997-.8 4.699997-1.3 1.100006-.30001 2.200004.29999 2.500008 1.29999zm-15.900002 2.00001c-1.599998.39999-3.200001.69999-4.900002 1.1-1.099998.2-1.799999 1.3-1.5 2.4.200001.89999 1 1.6 2 1.6h.400002c1.700001-.39999 3.299999-.7 4.900002-1.1 1.099998-.2 1.7-1.30001 1.5-2.4-.200001-1.09999-1.300004-1.80002-2.400002-1.6zm34.900002-48.500012c.400001.300004.800003.400002 1.199996.400002.599999 0 1.199997-.300003 1.599999-.800003.199997-.199997.400001-.400002.599998-.699997.900002-1 2-2 3.400002-3 .900001-.699997 1.099998-1.900002.400001-2.800003-.699996-.900002-1.900001-1.099999-2.800003-.400002-1.599998 1.199997-3 2.400002-4 3.599999-.300003.300003-.5.599998-.699997.900001-.699996.900002-.599998 2.200005.300004 2.800003zm-8.200005 41.000002c-1.5.5-3.099999 1.1-4.699997 1.6l-.900002.3c-1.099998.3-1.599998 1.5-1.300003 2.5.300003.9 1.099999 1.4 1.900002 1.4.199997 0 .400001 0 .599998-.1l1-.3c1.699997-.5 3.300003-1.1 4.800003-1.6 1-.4 1.599999-1.5 1.199997-2.6-.399993-1-1.599998-1.5-2.599998-1.2zm14.900001-23.1c1.400002 1.2 2.5 2.1 3.5 3.1 0 0 0 0 .099999.1.199997.19999.400001.4.599998.69999.400005.40001.900005.7 1.500005.7.5 0 .9-.2 1.3-.5.8-.7.9-2 .2-2.8-.2-.300005-.5-.500002-.7-.699999 0 0 0 0-.1-.099999-1.1-1.099998-2.400002-2.199997-3.900002-3.5-.900001-.699997-2.099998-.599998-2.800003.300003-.700004.900002-.499992 2.000008.300003 2.700005zm10.400002-32c-1.6.699997-3.2 1.400002-4.7 2.099998-.3.199997-.59999.300004-.9.5-.999998.5-1.4 1.699997-.9 2.699997.400002.699997 1.1 1.099999 1.8 1.099999.30001 0 .6-.099999.90001-.199997.3-.099999.59999-.300003.9-.400002 1.4-.699997 2.9-1.400001 4.4-2 1-.400001 1.5-1.599998 1.1-2.599998-.40001-1.199997-1.60001-1.599999-2.60001-1.199997zm13.4-4.900002c-1.6.5-3.19999 1-4.8 1.599999l-1 .299999c-1 .399998-1.6 1.500004-1.2 2.600002.30001.800004 1.1 1.300004 1.9 1.300004.2 0 .40001 0 .7-.099999l.9-.300003c1.6-.5 3.1-1.099998 4.7-1.599998 1.1-.300004 1.6-1.5 1.3-2.5-.4-1-1.5-1.600003-2.5-1.300004zm-30.700003 30.599999c.199997.300003.5.599998.699997.800003.400001.400002.900001.699997 1.5.699997.5 0 1-.199997 1.300003-.5.800003-.699997.900001-2 .099998-2.800003-.199997-.199997-.400001-.5-.599998-.699997-1-1.199997-1.599999-2.400002-1.900002-3.5-.199997-1.099999-1.300003-1.800003-2.400001-1.5-1.099999.199997-1.800003 1.300003-1.5 2.400001.500008 1.599999 1.400009 3.300004 2.800003 5.099999zm15.500003 14.100003c-1.1-.19999-2.1.40001-2.4 1.5-.2 1.1-.90001 2.2-1.900006 3.40001-.199997.19999-.400002.4-.599999.59999-.800003.80001-.800003 2 0 2.80001.400002.4.900005.6 1.400005.6s1-.2 1.4-.6c.3-.30001.5-.5.7-.80001 1.5-1.69999 2.5-3.4 2.9-5.19999.3-.90001-.4-2.00001-1.5-2.30001zm-11.000003 9.9c-1.300003.69999-2.800003 1.5-4.300003 2.19999 0 0 0 0-.099999 0l-.800003.40001c-1 .4-1.5 1.59999-1 2.59999.300003.7 1.099999 1.2 1.800003 1.2.300003 0 .5-.1.800003-.2l.900002-.4h.099998c1.599999-.8 3.199997-1.5 4.5-2.3 1-.5 1.300004-1.8.800004-2.7-.5-.99999-1.700005-1.39999-2.700005-.79999zm-38.099999-39.899997c0 9.800003-8 17.800003-17.799999 17.800003s-17.799999-8-17.799999-17.800003 8-17.799999 17.799999-17.799999 17.799999 7.999996 17.799999 17.799999zm-4 0c0-7.599998-6.2-13.799999-13.799999-13.799999-7.599998 0-13.799999 6.200001-13.799999 13.799999 0 7.599999 6.200001 13.800003 13.799999 13.800003 7.599999 0 13.799999-6.200004 13.799999-13.800003zm1.400002 34.699997c-4.200001 6.4-8.799999 12.6-13.599998 18.60001-.400002.5-1 .69999-1.599999.69999-.599998 0-1.200001-.3-1.599998-.69999-4.8-6-9.4-12.30001-13.600001-18.6-10.200004-15.300013-13.9000042-24.200007-13.9000042-33.900012 0-12.199996 11.0999992-29.2 29.0999992-29.2s29.000004 16.899997 29.100003 29.100002c-.099999 9.800003-3.700001 18.699997-13.900002 34zm-3.299999-2.2c11-16.599995 13.200001-24.199994 13.200001-31.699994 0-10.5-9.599999-25.200001-25.099999-25.200001s-25 14.600003-25.1 25.100003c0 7.599998 2.2 15.199997 13.199999 31.799992 3.7 5.6 7.7 11.1 11.900001 16.40001 4.199997-5.30001 8.199997-10.80001 11.899998-16.40001zm86.599999-77.9c0 5.800001-4.69999 10.399999-10.4 10.399999-5.7 0-10.4-4.700001-10.4-10.399999 0-5.699999 4.7-10.4 10.4-10.4 5.70001 0 10.4 4.6 10.4 10.4zm-4 0c0-3.5-2.89999-6.4-6.4-6.4s-6.4 2.9-6.4 6.4c0 3.500002 2.9 6.399999 6.4 6.399999 3.49999 0 6.4-2.899997 6.4-6.399999zm10 .399999c0 5.400002-2 10.299999-7.6 18.700001-2.30001 3.400002-4.7 6.799999-7.30001 10-.4.5-1 .700001-1.59999.700001-.6 0-1.2-.299999-1.6-.700001-2.6-3.200001-5.1-6.599998-7.30001-10-5.59999-8.400002-7.5-13.200001-7.59999-18.6 0-6.9 6.3-16.5 16.4-16.5 10.3-.1 16.6 9.5 16.6 16.399999zm-4 0c0-4.5-4.19999-12.5-12.4-12.5-8.3 0-12.4 8-12.4 12.5 0 3.900002 1.1 7.799999 6.9 16.5 1.7 2.599999 3.6 5.200001 5.6 7.799999 2-2.5 3.8-5.099998 5.60001-7.799999 5.5-8.700001 6.69999-12.599998 6.69999-16.5z" transform="matrix(.59021322 0 0 .58675222 -4.265991 -4.03553)"/></svg>

<?xml version="1.0" encoding="UTF-8" standalone="no"?>
<!-- Created with Inkscape (http://www.inkscape.org/) -->

<svg
   width="80"
   height="80"
   viewBox="0 0 80 80"
   version="1.1"
   id="svg1"
   inkscape:version="1.3 (0e150ed, 2023-07-21)"
   sodipodi:docname="route.svg"
   xmlns:inkscape="http://www.inkscape.org/namespaces/inkscape"
   xmlns:sodipodi="http://sodipodi.sourceforge.net/DTD/sodipodi-0.dtd"
   xmlns="http://www.w3.org/2000/svg"
   xmlns:svg="http://www.w3.org/2000/svg">
  <sodipodi:namedview
     id="namedview1"
     pagecolor="#ffffff"
     bordercolor="#666666"
     borderopacity="1.0"
     inkscape:showpageshadow="2"
     inkscape:pageopacity="0.0"
     inkscape:pagecheckerboard="0"
     inkscape:deskcolor="#d1d1d1"
     inkscape:document-units="px"
     inkscape:zoom="3.1500561"
     inkscape:cx="9.6823672"
     inkscape:cy="32.380376"
     inkscape:window-width="1392"
     inkscape:window-height="1027"
     inkscape:window-x="0"
     inkscape:window-y="25"
     inkscape:window-maximized="0"
     inkscape:current-layer="layer1" />
  <defs
     id="defs1">
    <clipPath
       clipPathUnits="userSpaceOnUse"
       id="clipPath102">
      <path
         d="M 664.8396,865.68457 H 886.82288 V 1093.9209 H 664.8396 Z"
         transform="matrix(2.184399,0,0,2.1735264,-1438.7749,-1873.6271)"
         clip-rule="evenodd"
         id="path102" />
    </clipPath>
    <clipPath
       clipPathUnits="userSpaceOnUse"
       id="clipPath96">
      <path
         d="M 2002.8915,865.68457 H 2268.646 V 1100.174 H 2002.8915 Z"
         transform="matrix(0.50620565,0,0,0.50919155,-1006.1382,-425.49927)"
         clip-rule="evenodd"
         id="path96" />
    </clipPath>
  </defs>
  <g
     inkscape:label="Layer 1"
     inkscape:groupmode="layer"
     id="layer1">
    <path
       id="path95"
       d="M 69.900002,127.6 C 70.200005,128.7 69.599998,129.8 68.5,130.10001 C 66.900002,130.5 65.300003,131 63.599998,131.40001 C 63.599998,131.40001 63.599998,131.40001 63.5,131.40001 L 62.599998,131.60001 C 62.399998,131.60001 62.299999,131.70001 62.099998,131.70001 C 61.199997,131.70001 60.399998,131.10001 60.199997,130.20001 C 59.899998,129.10001 60.599998,128.00001 61.599998,127.80001 L 62.599998,127.60001 C 62.599998,127.60001 62.599998,127.60001 62.699997,127.60001 C 64.299995,127.20001 65.899994,126.80001 67.399994,126.30001 C 68.5,126 69.599998,126.6 69.900002,127.6 Z M 54,129.60001 C 52.400002,130 50.799999,130.3 49.099998,130.70001 C 48,130.90001 47.299999,132.00001 47.599998,133.10001 C 47.799999,134 48.599998,134.70001 49.599998,134.70001 C 49.699997,134.70001 49.899998,134.70001 50,134.70001 C 51.700001,134.30002 53.299999,134.00001 54.900002,133.60001 C 56,133.40001 56.600002,132.3 56.400002,131.20001 C 56.200001,130.10002 55.099998,129.39999 54,129.60001 Z M 88.900002,81.099998 C 89.300003,81.400002 89.700005,81.5 90.099998,81.5 C 90.699997,81.5 91.299995,81.199997 91.699997,80.699997 C 91.899994,80.5 92.099998,80.299995 92.299995,80 C 93.199997,79 94.299995,78 95.699997,77 C 96.599998,76.300003 96.799995,75.099998 96.099998,74.199997 C 95.400002,73.299995 94.199997,73.099998 93.299995,73.799995 C 91.699997,74.999992 90.299995,76.199997 89.299995,77.399994 C 88.999992,77.699997 88.799995,77.999992 88.599998,78.299995 C 87.900002,79.199997 88,80.5 88.900002,81.099998 Z M 80.699997,122.1 C 79.199997,122.6 77.599998,123.2 76,123.7 L 75.099998,124 C 74,124.3 73.5,125.5 73.799995,126.5 C 74.099998,127.4 74.899994,127.9 75.699997,127.9 C 75.899994,127.9 76.099998,127.9 76.299995,127.8 L 77.299995,127.5 C 78.999992,127 80.599998,126.4 82.099998,125.9 C 83.099998,125.5 83.699997,124.4 83.299995,123.3 C 82.900002,122.3 81.699997,121.8 80.699997,122.1 Z M 95.599998,99 C 97,100.2 98.099998,101.1 99.099998,102.1 C 99.099998,102.1 99.099998,102.1 99.199997,102.2 C 99.399994,102.39999 99.599998,102.6 99.799995,102.89999 C 100.2,103.3 100.7,103.59999 101.3,103.59999 C 101.8,103.59999 102.2,103.39999 102.6,103.09999 C 103.4,102.39999 103.5,101.09999 102.8,100.29999 C 102.6,99.999985 102.3,99.799988 102.1,99.599991 C 102.1,99.599991 102.1,99.599991 102,99.499992 C 100.9,98.399994 99.599998,97.299995 98.099998,95.999992 C 97.199997,95.299995 96,95.399994 95.299995,96.299995 C 94.599991,97.199997 94.800003,98.300003 95.599998,99 Z M 106,67 C 104.4,67.699997 102.8,68.400002 101.3,69.099998 C 101,69.299995 100.70001,69.400002 100.4,69.599998 C 99.400002,70.099998 99,71.299995 99.5,72.299995 C 99.900002,72.999992 100.6,73.399994 101.3,73.399994 C 101.60001,73.399994 101.9,73.299995 102.20001,73.199997 C 102.50001,73.099998 102.8,72.899994 103.10001,72.799995 C 104.50001,72.099998 106.00001,71.399994 107.50001,70.799995 C 108.50001,70.399994 109.00001,69.199997 108.60001,68.199997 C 108.2,67 107,66.599998 106,67 Z M 119.4,62.099998 C 117.8,62.599998 116.20001,63.099998 114.6,63.699997 L 113.6,63.999996 C 112.6,64.399994 112,65.5 112.4,66.599998 C 112.70001,67.400002 113.5,67.900002 114.3,67.900002 C 114.5,67.900002 114.70001,67.900002 115,67.800003 L 115.9,67.5 C 117.5,67 119,66.400002 120.6,65.900002 C 121.7,65.599998 122.2,64.400002 121.9,63.400002 C 121.5,62.400002 120.4,61.799999 119.4,62.099998 Z M 88.699997,92.699997 C 88.899994,93 89.199997,93.299995 89.399994,93.5 C 89.799995,93.900002 90.299995,94.199997 90.899994,94.199997 C 91.399994,94.199997 91.899994,94 92.199997,93.699997 C 93,93 93.099998,91.699997 92.299995,90.899994 C 92.099998,90.699997 91.899994,90.399994 91.699997,90.199997 C 90.699997,89 90.099998,87.799995 89.799995,86.699997 C 89.599998,85.599998 88.499992,84.899994 87.399994,85.199997 C 86.299995,85.399994 85.599991,86.5 85.899994,87.599998 C 86.400002,89.199997 87.300003,90.900002 88.699997,92.699997 Z M 104.2,106.8 C 103.1,106.60001 102.1,107.20001 101.8,108.3 C 101.6,109.4 100.89999,110.5 99.899994,111.70001 C 99.699997,111.9 99.499992,112.10001 99.299995,112.3 C 98.499992,113.10001 98.499992,114.3 99.299995,115.10001 C 99.699997,115.50001 100.2,115.70001 100.7,115.70001 C 101.2,115.70001 101.7,115.50001 102.1,115.10001 C 102.4,114.8 102.6,114.60001 102.8,114.3 C 104.3,112.60001 105.3,110.9 105.7,109.10001 C 106,108.2 105.3,107.1 104.2,106.8 Z M 93.199997,116.7 C 91.899994,117.39999 90.399994,118.2 88.899994,118.89999 C 88.899994,118.89999 88.899994,118.89999 88.799995,118.89999 L 87.999992,119.3 C 86.999992,119.7 86.499992,120.89999 86.999992,121.89999 C 87.299995,122.59999 88.099991,123.09999 88.799995,123.09999 C 89.099998,123.09999 89.299995,122.99999 89.599998,122.89999 L 90.5,122.49999 C 90.5,122.49999 90.599998,122.49999 90.599998,122.49999 C 92.199997,121.69999 93.799995,120.99999 95.099998,120.19999 C 96.099998,119.69999 96.400002,118.39999 95.900002,117.49999 C 95.400002,116.5 94.199997,116.1 93.199997,116.7 Z M 55.099998,76.800003 C 55.099998,86.600006 47.099998,94.600006 37.299999,94.600006 C 27.5,94.600006 19.5,86.600006 19.5,76.800003 C 19.5,67 27.5,59.000004 37.299999,59.000004 C 47.099998,59.000004 55.099998,67 55.099998,76.800003 Z M 51.099998,76.800003 C 51.099998,69.200005 44.899998,63.000004 37.299999,63.000004 C 29.700001,63.000004 23.5,69.200005 23.5,76.800003 C 23.5,84.400002 29.700001,90.600006 37.299999,90.600006 C 44.899998,90.600006 51.099998,84.400002 51.099998,76.800003 Z M 52.5,111.5 C 48.299999,117.9 43.700001,124.1 38.900002,130.10001 C 38.5,130.60001 37.900002,130.8 37.300003,130.8 C 36.700005,130.8 36.100002,130.5 35.700005,130.10001 C 30.900005,124.10001 26.300005,117.8 22.100004,111.50001 C 11.9,96.199997 8.1999998,87.300003 8.1999998,77.599998 C 8.1999998,65.400002 19.299999,48.399998 37.299999,48.399998 C 55.299999,48.399998 66.300003,65.299995 66.400002,77.5 C 66.300003,87.300003 62.700001,96.199997 52.5,111.5 Z M 49.200001,109.3 C 60.200001,92.700005 62.400002,85.100006 62.400002,77.600006 C 62.400002,67.100006 52.800003,52.400005 37.300003,52.400005 C 21.800003,52.400005 12.300003,67.000008 12.200003,77.500008 C 12.200003,85.100006 14.400003,92.700005 25.400002,109.3 C 29.100002,114.9 33.100002,120.4 37.300003,125.70001 C 41.5,120.4 45.5,114.9 49.200001,109.3 Z M 135.8,31.4 C 135.8,37.200001 131.10001,41.799999 125.4,41.799999 C 119.7,41.799999 115,37.099998 115,31.4 C 115,25.700001 119.7,21 125.4,21 C 131.10001,21 135.8,25.6 135.8,31.4 Z M 131.8,31.4 C 131.8,27.9 128.90001,25 125.4,25 C 121.89999,25 119,27.9 119,31.4 C 119,34.900002 121.9,37.799999 125.4,37.799999 C 128.89999,37.799999 131.8,34.900002 131.8,31.4 Z M 141.8,31.799999 C 141.8,37.200001 139.8,42.099998 134.2,50.5 C 131.89999,53.900002 129.5,57.299999 126.89999,60.5 C 126.49999,61 125.89999,61.200001 125.3,61.200001 C 124.7,61.200001 124.1,60.900002 123.7,60.5 C 121.1,57.299999 118.6,53.900002 116.39999,50.5 C 110.8,42.099998 108.89999,37.299999 108.8,31.9 C 108.8,25 115.1,15.4 125.2,15.4 C 135.5,15.3 141.8,24.9 141.8,31.799999 Z M 137.8,31.799999 C 137.8,27.299999 133.60001,19.299999 125.4,19.299999 C 117.1,19.299999 113,27.299999 113,31.799999 C 113,35.700001 114.1,39.599998 119.9,48.299999 C 121.6,50.899998 123.5,53.5 125.5,56.099998 C 127.5,53.599998 129.3,51 131.10001,48.299999 C 136.60001,39.599998 137.8,35.700001 137.8,31.799999 Z"
       style="fill:#000000;fill-opacity:1;fill-rule:nonzero;stroke:none"
       transform="matrix(0.59021322,0,0,0.58675222,-4.2659914,-4.0355297)"
       clip-path="url(#clipPath96)" />
  </g>
</svg>
